X:1
T:D Major Samuel Holyoke, 1791
T:Isaac Watts, 1717 (Psalm 134)              86. 86. (C. M.)
T:Austria Transcribed from Harmonia Americana, 1791.
%%score [ 1 2 3 ]
L:1/8
Q:1/4=100
M:2/4
K:D
V:1 treble nm="Voice"
V:2 treble-8 nm="Tenor"
V:3 bass nm="Bass"
V:1
 D2 D>D | D3 G | FE DC | D3 E | F2 F2 | G3 G | E4 |: F2 A>d | cd/e/ d2 | cd/e/ dc | d3 d | cB AG | %12
 FG AB | Ad FG | F2 E2 | D4 :|[M:3/8][Q:1/4=70] z z A | dcd | AGF | BAG | F2 B | B^AB | cAd | %23
 dc z | fff | g2 g | gff | fee | f/>e/dA | dg/f/e | f3 |[M:2/4][Q:1/4=100] z2 z D | F2 A2 | d2 D2 | %34
 F2 A2 | d3 e | fe de | fe dc | d3 e | fe dc | dc BA | g2 f2 | e3 a/g/ | f3 e | d2 c2 | d4 |] %46
V:2
"^Ye  that o – bey   th'im–mor– tal  King,   At – tend  his       ho  – ly    place;  Bow to the   glo   –   ries     of           his      power,   And" F2 F>F | %1
 F3 B | AG FE | F3 A | Ad dc | B3 B | c4 |: A2 F>F | EF/G/ F2 | EF/G/ FE | F3 B | %11
"^bless his wondrous grace, his wondrous grace." Ad cc | d3 d | dA Bd | A2 c2 | [Fd]4 :| %16
[M:3/8] z z"^Lift   up  your hands by morning light,  And send your souls on high;" d | fef | fed | %19
 gfe | d2 d | dce | ecf | fe z | %24
"^Raise your ad–mi–ring thoughts by night  A – bove          the     star  –   ry    sky." AA d/c/ | %25
 B2 B | B2 d | A2 c | d/>e/fd | Be/d/c | d3 | %31
[M:2/4] z2 z"^The God of  Zion cheers our hearts. With" D | F2 A2 | d2 D2 | F2 A2 | d3 c | %36
"^rays     of        quick–'ning  grace;   The  God     that   spread  the heav'ns a – broad,  And   rules   the swelling  seas." dc Ac | %37
 de fe | f3 c | Ac dA | FA d2 | c2 d2 | c3 c | d3 g | f2 e2 | f4 |] %46
V:3
 D,2 D,>D, | D,3 G,, | A,,2 A,,2 | D,3 A,, | D,2 D,2 | G,,3 G,, | A,,4 |: D,2 D,>D, | A,2 D,2 | %9
 A,2 A,,2 | D,E, F,G, | A,3 A,, | D,E, F,G, | F,2 B,2 | A,2 A,,2 | D,4 :|[M:3/8] z z D, | D,A,,D, | %18
 A,2 B, | G,A,A,, | D,2 B,, | F,2 E, | A,2 D, | A,2 z | DDD | E2 E | EDD | DCA, | DD,F, | B,G,A, | %30
 D,3 |[M:2/4] z2 z D, | F,2 A,2 | D2 D,2 | F,2 A,2 | D3 A, | DA, F,A, | DA, F,A, | D3 A, | %39
 DC B,A, | B,A, G,F, | E,2 D,2 | A,3 A, | D2 [G,,G,]2 | [A,,A,]2 [A,,A,]2 | D,4 |] %46

